storage/app/icons/phosphoricons/regular/court-basketball.svg

<svg xmlns="http://www.w3.org/2000/svg" fill="currentColor" viewBox="0 0 256 256"><path d="M224 48H32a16 16 0 0 0-16 16v128a16 16 0 0 0 16 16h192a16 16 0 0 0 16-16V64a16 16 0 0 0-16-16m0 112h-8a32 32 0 0 1 0-64h8ZM32 96h8a32 32 0 0 1 0 64h-8Zm0 80h8a48 48 0 0 0 0-96h-8V64h88v128H32Zm192 16h-88V64h88v16h-8a48 48 0 0 0 0 96h8z"/></svg>

<svg xmlns="http://www.w3.org/2000/svg" viewBox="0 0 256 256" fill="currentColor"><path d="M224,48H32A16,16,0,0,0,16,64V192a16,16,0,0,0,16,16H224a16,16,0,0,0,16-16V64A16,16,0,0,0,224,48Zm0,112h-8a32,32,0,0,1,0-64h8ZM32,96h8a32,32,0,0,1,0,64H32Zm0,80h8a48,48,0,0,0,0-96H32V64h88V192H32Zm192,16H136V64h88V80h-8a48,48,0,0,0,0,96h8v16Z"/></svg>
